dist/img/icon-telegram.svg

<svg width="48" height="48" viewBox="0 0 48 48" fill="none" xmlns="http://www.w3.org/2000/svg">
<circle cx="24" cy="24" r="24" fill="#0088CC"/>
<path fill-rule="evenodd" clip-rule="evenodd" d="M13.8758 21.9568L31.7004 15.1181C32.5277 14.8207 33.2502 15.3189 32.9821 16.5637L29.9487 30.7899C29.7238 31.7986 29.1214 32.0439 28.2787 31.5687L23.657 28.1792L21.4277 30.3162C21.1813 30.5615 20.9733 30.7685 20.4957 30.7685L20.8238 26.0882L29.3895 18.388C29.7623 18.0615 29.3063 17.8775 28.8148 18.2025L18.2295 24.8342L13.6663 23.4178C12.6757 23.105 12.6541 22.432 13.8758 21.9568Z" fill="white"/>
</svg>

<svg width="48" height="48" fill="none" xmlns="http://www.w3.org/2000/svg"><circle cx="24" cy="24" r="24" fill="#08C"/><path fill-rule="evenodd" clip-rule="evenodd" d="M13.876 21.957L31.7 15.118c.828-.297 1.55.2 1.282 1.446L29.95 30.79c-.225 1.009-.828 1.254-1.67.779l-4.622-3.39-2.23 2.137c-.246.245-.454.453-.931.453l.328-4.68 8.566-7.701c.372-.327-.084-.51-.575-.186L18.23 24.834l-4.564-1.416c-.99-.313-1.012-.986.21-1.461z" fill="#fff"/></svg>
